categories/32/applications-science.svg

<?xml version="1.0" encoding="UTF-8" standalone="no"?>
<!-- Created with Inkscape (http://www.inkscape.org/) -->

<svg
  width="32"
  height="32"
  version="1.1"
  viewBox="0 0 32 32"
  id="svg22"
  xmlns:xlink="http://www.w3.org/1999/xlink"
  xmlns="http://www.w3.org/2000/svg"
  xmlns:svg="http://www.w3.org/2000/svg">
 <style
   type="text/css"
   id="current-color-scheme">
  .ColorScheme-Highlight {
        color:#3daee9;
      }
      </style>
 <defs
   id="defs12">
  <linearGradient
    id="linearGradient13">
   <stop
     style="stop-color:#eceded;stop-opacity:0.2;"
     offset="0"
     id="stop13" />
   <stop
     style="stop-color:#ffffff;stop-opacity:0.28072473;"
     offset="0.51263642"
     id="stop15" />
   <stop
     style="stop-color:#eceded;stop-opacity:0.20128907;"
     offset="1"
     id="stop14" />
  </linearGradient>
  <linearGradient
    id="linearGradient3">
   <stop
     style="stop-color:#000000;stop-opacity:1;"
     offset="0"
     id="stop3" />
   <stop
     style="stop-color:#3e3e3e;stop-opacity:1;"
     offset="1"
     id="stop4" />
  </linearGradient>
  <linearGradient
    id="linearGradient7">
   <stop
     style="stop-color:#141618;stop-opacity:1;"
     offset="0"
     id="stop7" />
   <stop
     style="stop-color:#686868;stop-opacity:1;"
     offset="0.53189832"
     id="stop9" />
   <stop
     style="stop-color:#31363b;stop-opacity:1;"
     offset="1"
     id="stop8" />
  </linearGradient>
  <linearGradient
    xlink:href="#linearGradient3487"
    id="linearGradient3403"
    gradientUnits="userSpaceOnUse"
    x1="6.9491749"
    y1="4.5549412"
    x2="11.215498"
    y2="59.052471" />
  <linearGradient
    id="linearGradient3487">
   <stop
     style="stop-color:#32373c;stop-opacity:1"
     offset="0"
     id="stop3481" />
   <stop
     id="stop3483"
     offset="0.36804965"
     style="stop-color:#1a1a1a;stop-opacity:1" />
   <stop
     style="stop-color:#31363b;stop-opacity:1"
     offset="1"
     id="stop3485" />
  </linearGradient>
  <linearGradient
    xlink:href="#linearGradient20604"
    id="linearGradient20558"
    gradientUnits="userSpaceOnUse"
    x1="25.802212"
    y1="20.373846"
    x2="25.111048"
    y2="58.912758" />
  <linearGradient
    id="linearGradient20604">
   <stop
     id="stop20598"
     offset="0"
     style="stop-color:#3d3d3d;stop-opacity:1" />
   <stop
     style="stop-color:#000000;stop-opacity:1"
     offset="0.61772454"
     id="stop20600" />
   <stop
     id="stop20602"
     offset="1"
     style="stop-color:#3d3d3d;stop-opacity:1" />
  </linearGradient>
  <filter
    style="color-interpolation-filters:sRGB"
    id="filter20720"
    x="-0.017154225"
    y="-0.016541574"
    width="1.0343069"
    height="1.0330831">
   <feGaussianBlur
     stdDeviation="0.14745661"
     id="feGaussianBlur20722" />
  </filter>
  <linearGradient
    xlink:href="#linearGradient7"
    id="linearGradient8"
    x1="17"
    y1="30"
    x2="17"
    y2="2"
    gradientUnits="userSpaceOnUse" />
  <linearGradient
    xlink:href="#linearGradient3"
    id="linearGradient4"
    x1="5.4461188"
    y1="27"
    x2="27.71137"
    y2="4.7078304"
    gradientUnits="userSpaceOnUse" />
  <linearGradient
    xlink:href="#linearGradient4298"
    id="linearGradient4615"
    y1="22"
    y2="15"
    x2="0"
    gradientUnits="userSpaceOnUse"
    gradientTransform="translate(-15.99999,10.0078)" />
  <linearGradient
    id="linearGradient4298">
   <stop
     style="stop-color:#42a603"
     id="stop4300" />
   <stop
     offset="1"
     style="stop-color:#78da06"
     id="stop4302" />
  </linearGradient>
  <linearGradient
    xlink:href="#linearGradient13"
    id="linearGradient14"
    x1="15.45784"
    y1="12.927988"
    x2="22"
    y2="13"
    gradientUnits="userSpaceOnUse" />
 </defs>
 <rect
   style="display:inline;fill:url(#linearGradient4);fill-opacity:1;fill-rule:evenodd;stroke:none;stroke-width:0.611209;stroke-linejoin:round;stroke-miterlimit:7.8"
   id="rect1192"
   width="26.963163"
   height="26.964264"
   x="2.5368359"
   y="2.5357363"
   ry="0" />
 <path
   id="path4243"
   class="ColorScheme-Highlight"
   fill="currentColor"
   d="M 18.607422 8.7871094 A 0.60646677 0.60646677 0 0 0 18 9.3925781 A 0.60646677 0.60646677 0 0 0 18.607422 10 A 0.60646677 0.60646677 0 0 0 19.212891 9.3925781 A 0.60646677 0.60646677 0 0 0 18.607422 8.7871094 z M 19.291016 12.154297 A 0.70806801 0.70806801 0 0 0 18.583984 12.863281 A 0.70806801 0.70806801 0 0 0 19.291016 13.570312 A 0.70806801 0.70806801 0 0 0 20 12.863281 A 0.70806801 0.70806801 0 0 0 19.291016 12.154297 z M 17.5 15 A 0.5 0.5 0 0 0 17 15.5 A 0.5 0.5 0 0 0 17.5 16 A 0.5 0.5 0 0 0 18 15.5 A 0.5 0.5 0 0 0 17.5 15 z M 15.457031 17.621094 L 9.6738281 27 L 18.583984 27 L 27.492188 27 L 21.708984 17.621094 L 18.583984 17.621094 L 15.457031 17.621094 z " />
 <path
   style="display:inline;fill:url(#linearGradient14);fill-rule:evenodd"
   id="path4241"
   d="m 7.642893,27 v 1.562992 H 29.524835 V 27 L 21.70981,14.49606 V 5.118105 h 1.562992 V 3.5551125 H 13.894847 V 5.117683 h 1.562993 v 9.378377 z" />
 <path
   style="display:inline;mix-blend-mode:normal;fill:url(#linearGradient3403);fill-opacity:1;stroke:url(#linearGradient20558);stroke-width:1.16242;stroke-linecap:butt;stroke-linejoin:round;stroke-miterlimit:4;stroke-dasharray:none;stroke-opacity:1;filter:url(#filter20720)"
   d="M 5.4025265,3.5689324 V 60.09958 H 57.895271 l 2.018951,-2.018952 c 0,0 -24.171977,0.621351 -33.141048,-4.285423 C 16.257548,48.042344 11.459382,3.5689324 11.459382,3.5689324 Z"
   id="path1686"
   transform="matrix(0.49530655,0,0,0.49530655,0.32409325,0.23228439)" />
 <path
   id="rect5"
   style="display:inline;opacity:1;fill:url(#linearGradient8);stroke-width:0.226"
   d="M 5,1 C 1,1 1,5 1,5 v 21 c 0,5 4,5 4,5 h 22 c 0,0 4,0 4,-4 V 5 c 0,0 0,-4 -4,-4 z m 0,2 h 22 c 2,0 2,2 2,2 v 22 c 0,2 -2,2 -2,2 H 5 C 5,29 3,29 3,26 V 5 C 3,5 3,3 5,3 Z" />
</svg>

<svg width="32" height="32" version="1.1" viewBox="0 0 32 32" xmlns="http://www.w3.org/2000/svg" xmlns:xlink="http://www.w3.org/1999/xlink">
<style id="current-color-scheme" type="text/css">.ColorScheme-Highlight {
        color:#3daee9;
      }</style>
<defs>
<linearGradient id="linearGradient3403" x1="6.9492" x2="11.215" y1="4.5549" y2="59.052" gradientUnits="userSpaceOnUse">
<stop style="stop-color:#32373c" offset="0"/>
<stop style="stop-color:#1a1a1a" offset=".36805"/>
<stop style="stop-color:#31363b" offset="1"/>
</linearGradient>
<linearGradient id="linearGradient20558" x1="25.802" x2="25.111" y1="20.374" y2="58.913" gradientUnits="userSpaceOnUse">
<stop style="stop-color:#3d3d3d" offset="0"/>
<stop offset=".61772"/>
<stop style="stop-color:#3d3d3d" offset="1"/>
</linearGradient>
<linearGradient id="linearGradient8" x1="17" x2="17" y1="30" y2="2" gradientUnits="userSpaceOnUse">
<stop style="stop-color:#141618" offset="0"/>
<stop style="stop-color:#686868" offset=".5319"/>
<stop style="stop-color:#31363b" offset="1"/>
</linearGradient>
<linearGradient id="linearGradient4" x1="5.4461" x2="27.711" y1="27" y2="4.7078" gradientUnits="userSpaceOnUse">
<stop offset="0"/>
<stop style="stop-color:#3e3e3e" offset="1"/>
</linearGradient>
<linearGradient id="linearGradient14" x1="15.458" x2="22" y1="12.928" y2="13" gradientUnits="userSpaceOnUse">
<stop style="stop-color:#eceded;stop-opacity:.2" offset="0"/>
<stop style="stop-color:#fff;stop-opacity:.28072" offset=".51264"/>
<stop style="stop-color:#eceded;stop-opacity:.20129" offset="1"/>
</linearGradient>
</defs>
<rect x="2.5368" y="2.5357" width="26.963" height="26.964" ry="0" style="fill-rule:evenodd;fill:url(#linearGradient4)"/>
<path class="ColorScheme-Highlight" d="m18.607 8.7871a0.60647 0.60647 0 0 0-0.60742 0.60547 0.60647 0.60647 0 0 0 0.60742 0.60742 0.60647 0.60647 0 0 0 0.60547-0.60742 0.60647 0.60647 0 0 0-0.60547-0.60547zm0.68359 3.3672a0.70807 0.70807 0 0 0-0.70703 0.70898 0.70807 0.70807 0 0 0 0.70703 0.70703 0.70807 0.70807 0 0 0 0.70898-0.70703 0.70807 0.70807 0 0 0-0.70898-0.70898zm-1.791 2.8457a0.5 0.5 0 0 0-0.5 0.5 0.5 0.5 0 0 0 0.5 0.5 0.5 0.5 0 0 0 0.5-0.5 0.5 0.5 0 0 0-0.5-0.5zm-2.043 2.6211-5.7832 9.3789h8.9102 8.9082l-5.7832-9.3789h-3.125-3.127z" fill="currentColor"/>
<path d="m7.6429 27v1.563h21.882v-1.563l-7.815-12.504v-9.378h1.563v-1.563h-9.378v1.5626h1.563v9.3784z" style="fill-rule:evenodd;fill:url(#linearGradient14)"/>
<path transform="matrix(.49531 0 0 .49531 .32409 .23228)" d="m5.4025 3.5689v56.531h52.493l2.019-2.019s-24.172 0.62135-33.141-4.2854c-10.516-5.7529-15.314-50.226-15.314-50.226z" style="fill:url(#linearGradient3403);mix-blend-mode:normal;stroke-linejoin:round;stroke-width:1.1624;stroke:url(#linearGradient20558)"/>
<path d="m5 1c-4 0-4 4-4 4v21c0 5 4 5 4 5h22s4 0 4-4v-22s0-4-4-4zm0 2h22c2 0 2 2 2 2v22c0 2-2 2-2 2h-22s-2 0-2-3v-21s0-2 2-2z" style="fill:url(#linearGradient8);stroke-width:.226"/>
</svg>
